X: 24403
T: Lovely Nancy
R: waltz
M: 3/4
K: Gmajor
P: version 1
|:B>A|G2 G2 G>B|A2 A2 A- A/B/4c/4|B2 ge dB|A4 B>A|
G2 G2 dB|A2 A2 ge|d>e dB A>B|G4:|
|:B>c|d2 d2 ge|d4 B>c|d2 d2 gB|A4 B>A|
G2 G2 dB|A2 A2 c-c/d/4e/4|d>e dB AB|G4:|
P: version 2
|:BA|G2 G2 GB|A2 A2 Ac|B2 ge dB|A4 AA|
G2 G2 dB|A2 A2 ge|d>e dB AB|G4:|
|:Bc|d2 d2 ge|d4 Bc|d2 d2 gB|A4 BA|
G2 G2 dB|A2 A2 ge|d>e dB AB|G4:|
P: version 3
|:B>A|GD GD GB|AD AD Ac|BG dB gB|B2 A2 B>A|
GD GD GB|AD AD Ac|Bg dB cA|G4:|
|:B>c|dB dB ge|e2 d2 B>c|dB dB gB|B2 A2 B>A|
FD GD GB|AD AD Ac|Bg dB cA|G4:|
P: version 4
|:B>A|G2 G2 GB|A2 A2 AB/c/|B2 ge dc|A4 B>A|
G2 G2 dB|A2 A2 ge|d>e d>B A>B|G4:|
|:B>c|d2 d2 ge|d4 B>c|d2 d2 gB|A4 B>A|
G2 G2 d>B|A2 A2 B>c|d>e d>B A>B|G4:|
P: version 5 & variations
|:B>A|G2 G2 G>B|A2 A2 A>c|B2 ge dB|A4 B>A|
G2 G2 G>B|A2 A2 A>c|B>g d>B c>A|G4:|
|:B>c|d2 d2 ge|e2 d2 B>c|d2 d2 (3geB|B2 A2 B>A|
G2 G2 G>B|A2 A2 A>c|B>g d>B c>A|G4:|
"variation"|:B>A|GD GD GB|AD AD Ac|BG dB gB|A4 B>A|
GD GD GB|AD AD Ac|B>g d>B c>A|G4:|
|:B>c|dB dB ge|ed d2 B>c|dB dB gB|B>A A2 B>A|
GD GD GB|AD AD Ac|B>g d>B c>A|G4:|

